!!!!SEGMENT: pl-wtm--r-1607--001_stefani-jozef--requiem-requiem-aeternam.krn
!!!cenid: 18xx:2356
!!!COM: Stefani, Józef
!!!COM-rismID: pe30024097
!!!CDT: 1800/04/16-1876/03/19
!!!CNT: Polish
!!!OPR: Requiem
!!!OTL: Requiem aeternam
!!!OMV: 001
!!!PDT:
!!!AGN: Sacred; Requiem
!!!SMS-siglum: PL-Wtm
!!!SMS-shelfmark: R 1607
!!!SMS-shelfwork: 001-001 M
!!!SMS-variant:
!!!SMS-altvar:
!!!NIFC-rismSourceID: 1001115431
!!!NIFC-rismChildID: 1001115431
!!!NIFC-islandoraID: pl-wtm:27353
!!!URL-pdf-islandora: https://repozytorium.nifc.pl/islandora/object/pl-wtm%3A27353/datastream/PDF/view
!!!URL-scan: https://polish.musicsources.pl/pl/lokalizacje/galeria/rekopisy/6385 @EN{Scan on Polish Music Sources Website} @PL{Skany w portalu Dziedzictwo Muzyki Polskiej w otwartym dostępie}
!!!IIIF:
!!!ONB-nifc: UWAGA: części Requiem: 1. Requiem aeternam, 2. Dies irae, 3. Offertorium, 4. Sanctus, 5. Benedicuts, 6. Agnus Dei, 7. Salve Regina
!!!AIN: 2 empty 2 tenor
!!!key:
**kern	**kern	**kern	**text	**text	**dynam	**kern	**kern	**dynam
*part4	*part4	*part3	*part3	*part3	*part3	*part2	*part1	*part1
*staff5	*staff4	*staff3	*staff3	*staff3	*	*staff2	*staff1	*
*Iempty	*Iorgan	*Iempty	*	*	*	*Itenor	*Itenor	*
*	*I"Organo	*I"Basſo	*	*	*	*I"Tenore II.o	*I"Tenore 1mo	*
*clefF4	*clefG2	*clefF4	*	*	*	*clefG	*clefG	*
*	*	*	*	*	*	*ITrd7c12	*ITrd7c12	*
*k[b-e-a-]	*k[b-e-a-]	*k[b-e-a-]	*	*	*	*k[b-e-a-]	*k[b-e-a-]	*
*c:	*c:	*c:	*	*	*	*c:	*c:	*
*M4/4	*M4/4	*M4/4	*	*	*	*M4/4	*M4/4	*
*met(c)	*met(c)	*met(c)	*	*	*	*met(c)	*met(c)	*
*all\right	*all\right	*all\right	*	*	*	*all\right	*all\right	*
=1	=1	=1	=1	=1	=1	=1	=1	=1
2rGG	8.G</L	1ryy	.	.	.	1ryy	1ryy	.
.	16F#X</K	.	.	.	.	.	.	.
.	8.G</	.	.	.	.	.	.	.
.	16A-</Jk	.	.	.	.	.	.	.
8.GG\L	[2G</	.	.	.	.	.	.	.
16FF#X\K	.	.	.	.	.	.	.	.
8.GG\	.	.	.	.	.	.	.	.
16AA-\Jk	.	.	.	.	.	.	.	.
=2	=2	=2	=2	=2	=2	=2	=2	=2
*^	*^	*	*	*	*	*	*	*
2.ryy	[1GG	2ryy	2G</]	1ryy	.	.	.	1ryy	1ryy	.
.	.	4A-</	2G</	.	.	.	.	.	.	.
4F\	.	4Bn< 4F</	.	.	.	.	.	.	.	.
*	*	*v	*v	*	*	*	*	*	*	*
=3	=3	=3	=3	=3	=3	=3	=3	=3	=3
*	*^	*	*	*	*	*	*	*	*
4G 4E-\	1GG]	4G/	4c	1ryy	.	.	.	1ryy	1ryy	.
4BBn/	.	2.ryy	4d/	.	.	.	.	.	.	.
4.C/	.	.	4.e-/	.	.	.	.	.	.	.
8E-/	.	.	8c/	.	.	.	.	.	.	.
*	*v	*v	*	*	*	*	*	*	*	*
*v	*v	*	*	*	*	*	*	*	*
=4	=4	=4	=4	=4	=4	=4	=4	=4
4.G 4.GG\	4.d 4.Bn/	1ryy	.	.	.	1ryy	1ryy	.
8F#X 8FF#X\	8e- 8c/	.	.	.	.	.	.	.
*2\right	*	*	*	*	*	*	*	*
2G 2GG\	2d 2B/	.	.	.	.	.	.	.
!!LO:LB:g=original
=5	=5	=5	=5	=5	=5	=5	=5	=5
2rGG	8.G</L	1ryy	.	.	.	1ryy	1ryy	.
.	16F#X</K	.	.	.	.	.	.	.
.	8.G</	.	.	.	.	.	.	.
.	16A-</Jk	.	.	.	.	.	.	.
8.GG\L	[2G</	.	.	.	.	.	.	.
16FF#X\K	.	.	.	.	.	.	.	.
8.GG\	.	.	.	.	.	.	.	.
16AA-\Jk	.	.	.	.	.	.	.	.
=6	=6	=6	=6	=6	=6	=6	=6	=6
*^	*^	*	*	*	*	*	*	*
2.ryy	[1GG	2ryy	2G</]	1ryy	.	.	.	1ryy	1ryy	.
.	.	4A-</	2G</	.	.	.	.	.	.	.
4F\	.	4Bn</	.	.	.	.	.	.	.	.
*	*	*v	*v	*	*	*	*	*	*	*
=7	=7	=7	=7	=7	=7	=7	=7	=7	=7
4E-\	1G 1GG_	4c/	1ryy	.	.	.	1ryy	1ryy	.
4BBn/	.	4d/	.	.	.	.	.	.	.
4.C/	.	4.e-/	.	.	.	.	.	.	.
8E-/	.	8c/	.	.	.	.	.	.	.
*v	*v	*	*	*	*	*	*	*	*
=8	=8	=8	=8	=8	=8	=8	=8	=8
4G 4GG/]	4g 4Bn/	1ryy	.	.	.	1ryy	1ryy	.
2G 2GG\	2g/	.	.	.	.	.	.	.
4G 4GG\	4g/	.	.	.	.	.	.	.
!!LO:PB:g=original
=9||	=9||	=9||	=9||	=9||	=9||	=9||	=9||	=9||
*	*	*^	*	*	*	*^	*^	*
!	!LO:TX:a:t=[segno]	!	!	!	!	!	!	!	!LO:TX:a:t=[segno]	!	!LO:DY:a:rj
2C 2CC\	2e- 2c 2G</	4.C\	2C/	Re-	Racz	.	4.G\	2G/	4.e-\	2e-/	f
.	.	8C\	.	-qui-	.	.	8G\	.	8e-\	.	.
2F 2FF\	2d 2A-</	4F\	2F/	-em	wie-	.	4A-\	2A-/	4d\	2d/	.
.	.	4F\	.	ae-	.	.	4A-\	.	4d\	.	.
*	*	*v	*v	*	*	*	*	*	*v	*v	*
*	*	*	*	*	*	*v	*v	*	*
=10	=10	=10	=10	=10	=10	=10	=10	=10
!	!	!	!	!	!	!	!LO:TX:t=P:problem=diminuendolike accent	!
4.F 4.FF\	4.Bn 4.A-</	(4.F\	-ter-	-czy-	.	(4.A-/	(4.Bn^\	.
8E- 8EE-\	8c 8G</	8E-\)	.	.	.	8G/)	8c\)	.
*	*	*2\right	*	*	*	*	*2\right	*
2E- 2EE-\	2c 2G</	2E-\	-nam	-sty	.	2G/	2c\	.
=11	=11	=11	=11	=11	=11	=11	=11	=11
!	!LO:N:n=2:vis=2.	!	!	!	!	!	!	!LO:DY:a:rj
2BBn\	2d 2G</	4.BBn/	do-	po-	.	4.G/	4.d\	p
.	.	8BB/	-na	-kój	.	8G/	8d\	.
4C\	4e-/	4C/	e-	dać	.	4G/	4e-\	.
4AA-\	4c 4A-</	4A-\	-i	im	.	4c\	4c\	.
=12	=12	=12	=12	=12	=12	=12	=12	=12
*	*	*^	*	*	*	*^	*^	*
2.G 2.GG/	2e- 2c/	4.G\	2G/	Do-	Pa-	.	4.c\	2c/	4.e-\	2e-/	.
.	.	8G\	.	-mi-	.	.	8c\	.	8e-\	.	.
.	4d 4Bn/	4G\	4G/	-ne	-nie	.	4Bn\	4Bn/	4d\	4d/	.
4F 4FF/	4r	4r	4ryy	.	.	.	4r	4ryy	4r	4ryy	.
*	*	*v	*v	*	*	*	*	*	*v	*v	*
*	*	*	*	*	*	*v	*v	*	*
!!LO:LB:g=original
=13	=13	=13	=13	=13	=13	=13	=13	=13
*	*	*	*	*	*	*2\right	*	*
!	!	!	!	!	!LO:DY:a:rj	!	!	!LO:DY:a:rj
2E- 2EE-/	2g 2c/	2E-\	Et	Nie-	f	2c\	2g\	f
2F 2FF\	2f 2A-/	4.F\	lux	-chaj	.	4.A-/	4.g\	.
.	.	8F\	per-	im	.	8A-/	8f\	.
=14	=14	=14	=14	=14	=14	=14	=14	=14
*	*	*^	*	*	*	*^	*^	*
1G 1GG	1e- 1c	4.G\	2G/	-pe-	świa-	.	4.c\	2c/	4.e-\	2e-/	.
.	.	8G\	.	-tu-	.	.	8c\	.	8e-\	.	.
.	.	2G\	2G/	-a	-tło	.	2c\	2c/	2e-\	2e-/	.
=15	=15	=15	=15	=15	=15	=15	=15	=15	=15	=15	=15
2F 2FF/	1d 1c	4.F/	2F\	lu-	swie-	.	4.c\	2c/	4.d\	2d/	.
.	.	8F/	.	.	-cić	.	8c\	.	8d\	.	.
2F#X 2FF#X/	.	4F#X\	4F#/	-ce-	nie-	.	4c\	2ryy	4d\	4d/	.
.	.	4F#\	4F#/	-at	-prze-	.	4c\	.	4d\	4d/	.
*	*	*v	*v	*	*	*	*	*	*v	*v	*
*	*	*	*	*	*	*v	*v	*	*
=16	=16	=16	=16	=16	=16	=16	=16	=16
*	*^	*	*	*	*	*	*	*
[>2G [>2GG\	4.d/	2Bn\	2G\	e-	-sta-	.	2Bn\	(4.d\	.
.	8g/	.	.	.	.	.	.	8g\)	.
8G] 8GG\]	8g/	8d 8B\	4G\	-is	-nie	.	4B\	2g\	.
8rCC	8G</L	8ryy	.	.	.	.	.	.	.
4rCC	8c< 8En</	4ryy	4r	.	.	.	4r	.	.
.	8d<J 8G</	.	.	.	.	.	.	.	.
*	*v	*v	*	*	*	*	*	*	*
=17||	=17||	=17||	=17||	=17||	=17||	=17||	=17||	=17||
*k[]	*k[]	*k[]	*	*	*	*k[]	*k[]	*
!	!	!	!	!	!	!	!LO:TX:a:i:t=dolce	!
2C 2CC\	2e 2G</	2C\	Te	Bo-	.	2G/	2e\	.
4D 4DD\	4B< 4F</	4D\	de-	-że	.	4F/	4B\	.
4E 4EE\	4c< 4G</	4E\	-cet	Sy-	.	4G/	4c\	.
!!LO:PB:g=original
=18	=18	=18	=18	=18	=18	=18	=18	=18
2.F 2.FF\	2B</	2F\	hym-	-o-	.	2F/	2B\	.
.	4A</	4F\	-nus	-nu	.	4F/	4A\	.
4E 4EE\	4c#X< 4G</	4E\	Te	Twe	.	4G/	4c#X\	.
=19	=19	=19	=19	=19	=19	=19	=19	=19
*	*	*^	*	*	*	*^	*^	*
2D 2DD\	2d 2F</	4D/	2D\	de-	I-	.	4F/	2F\	4d/	2d\	.
.	.	8.D/	.	.	-mie	.	8.F/	.	8.d/	.	.
.	.	16D/	.	.	na-	.	16F/	.	16d/	.	.
4G 4GG\	2B 2G</	(4G\	2ryy	-cet	le-	.	4G/	2G\	4B/	2B\	.
4F 4FF\	.	4F\)	.	.	-ży	.	4G/	.	4B/	.	.
*	*	*v	*v	*	*	*	*	*	*v	*v	*
*	*	*	*	*	*	*v	*v	*	*
=20	=20	=20	=20	=20	=20	=20	=20	=20
4E 4EE\	4c 4G</	4E\	hym-	ucz-	.	4G/	(8.c\L	.
.	.	.	.	.	.	.	32d\LL	.
.	.	.	.	.	.	.	32c\JJJ	.
8DL 8DD\	8BL 8F</	8D\	-nus	-cić	.	8F/	8B\)	.
8CJ 8CC\	8cJ 8E</	8C\	in	przez	.	8E/	8c\	.
4.G 4.GG\	4e 4c/	4G\	Si-	pie-	.	4c\	4e\	.
.	8d 8B/	8GG/	-on	-nia	.	8B\	8d\	.
8r	8r	8r	.	.	.	8r	8r	.
!!LO:LB:g=original
=21	=21	=21	=21	=21	=21	=21	=21	=21
*	*	*^	*	*	*	*^	*^	*
2AA\	2c 2A< 2E</	4A/	2A\	Et	To-	.	4A/	2A\	4c/	2c\	.
.	.	8.A/	.	.	-bie	.	8.A/	.	8.c/	.	.
.	.	16A/	.	.	się	.	16A/	.	16c/	.	.
2GG\	2d 2B 2G</	4G\	2ryy	ti-	w_Je-	.	4B\	2ryy	4d\	2ryy	.
.	.	8.G\	.	-bi	-ro-	.	8.B\	.	8.d\	.	.
.	.	16G\	.	re-	-zo-	.	16B\	.	16d\	.	.
*	*	*v	*v	*	*	*	*	*	*v	*v	*
*	*	*	*	*	*	*v	*v	*	*
=22	=22	=22	=22	=22	=22	=22	=22	=22
2.C 2.CC\	2.e 2.c 2.G</	2C/	-de-	-li-	.	2c\	2e\	.
.	.	4C/	-tur	-mie	.	4c\	4e\	.
4E 4EE\	4g 4c/	(4E\	vo-	od-	.	4c\	(4g\	.
=23	=23	=23	=23	=23	=23	=23	=23	=23
*	*	*^	*	*	*	*^	*^	*
4D 4DD/	8.gL 8.A/	4D\)	2r)yy	.	-da-	.	(8A\L	2ryy	8.g\L	2ryy	.
.	.	.	.	.	.	.	8B\J)	.	.	.	.
.	16fJk 16B/	.	.	.	.	.	.	.	16f\Jk)	.	.
4C 4CC/	2e 2c/	4C\	.	-tum	-dzą	.	4c\	.	4e\	.	.
!	!	!	!	!	!LO:MO:mod=ca-	!	!	!	!	!	!
2G 2GG\	.	8.G\	4G/	In	cia-	.	8.c\	4c/	8.e\	4e/	.
.	.	16G\	.	Je-	.	.	16c\	.	16e\	.	.
.	8.dL 8.B/	8.G\	4ryy	-ru-	-ło	.	8.B\	8.B/	8.d\	8.d/	.
.	16cJk 16A/	16G\	.	-sa-	pa-	.	16A\	16A/	16c\	16c/	.
*	*	*v	*v	*	*	*	*	*	*	*	*
!!LO:LB:g=original
=24	=24	=24	=24	=24	=24	=24	=24	=24	=24	=24
2.G 2.GG\	2.d 2.B/	(2G\	-lem	-le-	.	2B/	2.B\	2d/	2.d\	.
.	.	4GG/)	.	-nia	.	4B/	.	4d/	.	.
4GG/	4G/	4GG/	Ex-	Po-	.	4G/	4ryy	4G/	4G\	.
*	*	*	*	*	*	*v	*v	*	*	*
*	*	*	*	*	*	*	*v	*v	*
=25||	=25||	=25||	=25||	=25||	=25||	=25||	=25||	=25||
*k[b-e-a-]	*k[b-e-a-]	*k[b-e-a-]	*	*	*	*k[b-e-a-]	*k[b-e-a-]	*
*	*^	*^	*	*	*	*^	*	*
2C 2CC\	2e- 2c 2G</	2ryy	2C/	2ryy	-au-	-kor-	.	2G/	2ryy	2e-\	.
2F 2FF\	4d/	2A-</	4F\	2F/	-di	ne	.	4A-\	2A-/	4d\	.
.	4c/	.	4F\	.	o-	.	.	4A-\	.	4c\	.
*	*v	*v	*	*	*	*	*	*	*	*	*
=26	=26	=26	=26	=26	=26	=26	=26	=26	=26	=26
*	*	*	*	*	*	*	*	*	*^	*
!	!	!LO:TX:t=P:problem=diminuendolike accent	!	!	!	!	!	!	!LO:TX:t=P:problem=diminuendolike accent	!	!
4.F 4.FF\	4.Bn 4.A-</	(4.F^\	2ryy	-ra-	mo-	.	(4.A-/	2ryy	(4.Bn^\	2ryy	.
8E- 8EE-\	8c 8G</	8E-\)	.	.	.	.	8G/)	.	8c\)	.	.
2E- 2EE-\	2c 2G</	4E-/	2E-\	ti-	je	.	4G/	2G\	4c/	2c\	.
.	.	4E-/	.	.	wy-	.	4G/	.	4c/	.	.
*	*	*v	*v	*	*	*	*	*	*v	*v	*
=27	=27	=27	=27	=27	=27	=27	=27	=27	=27
!	!LO:N:n=2:vis=2.	!	!	!	!	!	!LO:N:vis=2.	!	!LO:DY:a:rj
2BBn\	2d 2G</	(2BBn/	-o-	-słu-	.	2G/	2G\	2d\	p
4C\	4e-/	4C/)	.	-chaj	.	4G/	4G\	4e-\	.
4A- 4AA-\	4c/	4A-\	-nem	wo-	.	4c/	4c\	4c\	.
=28	=28	=28	=28	=28	=28	=28	=28	=28	=28
*	*	*	*	*	*	*^	*	*^	*
2.G 2.GG\	2e- 2c/	2G\	me-	-ła-	.	2c\	2ryy	2ryy	2e-/	2e-\	.
!	!	!	!	!	!	!	!	!	!	!	!LO:HP:a
.	4d 4Bn/	4G\	-am	-nie	.	4Bn\	4Bn/	2B/	4d\	2d/	<
4F 4FF\	4d 4B/	4F\	Ad	Do	.	4B\	4ryy	.	4d\	.	[[
*	*	*	*	*	*	*v	*v	*	*v	*v	*
!!LO:PB:g=original
=29	=29	=29	=29	=29	=29	=29	=29	=29	=29
*	*^	*^	*	*	*	*	*	*	*
*	*	*2\right	*	*	*	*	*	*	*	*	*
!	!	!	!	!	!	!	!	!	!	!	!LO:DY:a:rj
2E- 2EE-/	2.g/	2c\	2E-\	2ryy	te	Cie-	.	2c\	2ryy	2g\	f
2F 2FF\	.	2A-\	4F/	2F\	om-	bie	.	4A-/	2A-\	(4g\	.
.	4f/	.	4F/	.	-nis	.	.	4A-/	.	4f\)	.
*	*v	*v	*	*	*	*	*	*	*	*	*
=30	=30	=30	=30	=30	=30	=30	=30	=30	=30	=30
*	*	*	*	*	*	*	*	*	*^	*
[1G [1GG	2e- 2c/	4.G/	2G\	ca-	wszel-	.	4.c/	2c\	4.e-/	2e-\	.
.	.	8G/	.	.	-kie	.	8c/	.	8e-/	.	.
.	2e- [2c/	4G/	2G\	-ro	przyj-	.	4c/	2c\	4e-/	2e-\	.
.	.	4G/	.	.	-dzie	.	4c/	.	4e-/	.	.
*	*	*v	*v	*	*	*	*	*	*v	*v	*
*	*	*	*	*	*	*v	*v	*	*
=31	=31	=31	=31	=31	=31	=31	=31	=31
*	*^	*	*	*	*	*	*	*
1G] 1GG]	2.d/	4c\]	2G\	ve-	cia-	.	(4c\	2.d\	.
.	.	8Bn\L	.	.	.	.	8Bn\L	.	.
.	.	8An\J	.	.	.	.	8An\J)	.	.
.	.	2B\	2GG/	-ni-	-ło	.	2B\	.	.
.	4g/	.	.	.	.	.	.	4g\	.
*	*v	*v	*	*	*	*	*	*	*
=32	=32	=32	=32	=32	=32	=32	=32	=32
*^	*	*^	*	*	*	*^	*^	*
!	!	!	!LO:N:vis=2.	!	!	!	!	!	!	!	!	!
2.G/	2.C\	2.en 2.c/	2C/	2C\	-et	Pa-	.	2c/	2.c\	2en/	2.e\	.
.	.	.	4C/	4C\	.	-nie	.	4c/	.	4e/	.	.
!	!	!	!	!	!	!	!	!	!	!	!	!LO:DY:a:rj
4ryy	[>4C [4CC\	4e 4c 4G</	4C\	[>4C/	Ad	Do	.	4c\	(>4c/	4e\	(>4e/	p
*	*	*	*v	*v	*	*	*	*	*	*v	*v	*
*v	*v	*	*	*	*	*	*v	*v	*	*
=33	=33	=33	=33	=33	=33	=33	=33	=33
*	*^	*	*	*	*	*	*	*
1C_> 1CC_	2f 2A-</	1c	2C/]	.	Cie-	.	2A-/)	2f\)	.
.	2en 2G</	.	2C/	te	-bie	.	2G/	2en\	.
!!LO:LB:g=original
=34	=34	=34	=34	=34	=34	=34	=34	=34	=34
1C_> 1CC_	2f 2A-</	1c	2C/	om-	wszel-	.	2A-/	2f\	.
.	2en 2G</	.	2C/	-nis	-kie	.	2G/	2en\	.
*	*v	*v	*	*	*	*	*	*	*
=35	=35	=35	=35	=35	=35	=35	=35	=35
1C_> 1CC_	4.f 4.A-</	4.C/	ca-	przyj-	.	4.A-/	4.f\	.
.	8en 8G</	8C/	-ro	-dzie	.	8G/	8en\	.
.	4f 4A-</	4C/	ve-	cia-	.	4A-/	4f\	.
.	4d 4F</	4C/	-ni-	-ło	.	4F/	4d\	.
=36	=36	=36	=36	=36	=36	=36	=36	=36
!	!	!	!	!	!LO:DY:a:rj	!	!	!LO:DY:a:rj
1C_> 1CC_	[1en [>1c [1G<	1C	-et	Pa-	f	1G	1en	f
!	!	!	!	!	!LO:HP:a	!	!	!LO:HP:a
.	.	.	.	.	>	.	.	>
=37	=37	=37	=37	=37	=37	=37	=37	=37
4C] 4CC\]	4e] 4c] 4G</]	4C/	.	-nie.	.	4G/	4en\	.
4r	4r	4r	.	.	]	4r	4r	]
2r;	2r;	2r;	.	.	.	2r;	2r;	.
==	==	==	==	==	==	==	==	==
*-	*-	*-	*-	*-	*-	*-	*-	*-
!!!system-decoration: {s1,s2,s3}{(p4)}
!!!RDF**kern: > = above
!!!RDF**kern: < = below
!!!ENC: Andrzej Kubiczek
!!!END: 2021-06-16
!!!ENC: Andrzej Gręziak
!!!END: 2021-06-04
!!!YEC: Copyright 2022 Narodowy Instytut Fryderyka Chopina (https://polishscores.org)
!!!YEM: License CC-BY-4.0 (https://creativecommons.org/licenses/by/4.0)
